SVG_Azure_Grouped/Compute/Kubernetes Service and Ingres.svg

<?xml version="1.0" encoding="UTF-8" standalone="no"?>
<!-- Generated by Microsoft Visio, SVG Export Kubernetes Service and Ingres.svg Page-1 -->

<svg
   xmlns:dc="http://purl.org/dc/elements/1.1/"
   xmlns:cc="http://creativecommons.org/ns#"
   xmlns:rdf="http://www.w3.org/1999/02/22-rdf-syntax-ns#"
   xmlns:svg="http://www.w3.org/2000/svg"
   xmlns="http://www.w3.org/2000/svg"
   xmlns:xlink="http://www.w3.org/1999/xlink"
   xmlns:sodipodi="http://sodipodi.sourceforge.net/DTD/sodipodi-0.dtd"
   xmlns:inkscape="http://www.inkscape.org/namespaces/inkscape"
   width="0.78744656in"
   height="0.74796623in"
   viewBox="0 0 56.69606 53.853709"
   xml:space="preserve"
   class="st4"
   version="1.1"
   id="svg40"
   sodipodi:docname="Kubernetes Service and Ingres.svg"
   style="font-size:12px;overflow:visible;color-interpolation-filters:sRGB;fill:none;fill-rule:evenodd;stroke-linecap:square;stroke-miterlimit:3"
   inkscape:version="0.92.5 (2060ec1f9f, 2020-04-08)"><metadata
   id="metadata44"><rdf:RDF><cc:Work
       rdf:about=""><dc:format>image/svg+xml</dc:format><dc:type
         rdf:resource="http://purl.org/dc/dcmitype/StillImage" /></cc:Work></rdf:RDF></metadata><sodipodi:namedview
   pagecolor="#ffffff"
   bordercolor="#666666"
   borderopacity="1"
   objecttolerance="10"
   gridtolerance="10"
   guidetolerance="10"
   inkscape:pageopacity="0"
   inkscape:pageshadow="2"
   inkscape:window-width="640"
   inkscape:window-height="480"
   id="namedview42"
   showgrid="false"
   inkscape:zoom="1.4523234"
   inkscape:cx="37.795237"
   inkscape:cy="35.889654"
   inkscape:window-x="0"
   inkscape:window-y="0"
   inkscape:window-maximized="0"
   inkscape:current-layer="svg40" />
	<style
   type="text/css"
   id="style2">
	<![CDATA[
		.st1 {fill:#a3a3a3;stroke:none;stroke-linecap:butt;stroke-width:34}
		.st2 {fill:#773adc;stroke:none;stroke-linecap:butt;stroke-width:34}
		.st3 {fill:url(#grad0-10);stroke:none;stroke-linecap:butt;stroke-width:34}
		.st4 {fill:none;fill-rule:evenodd;font-size:12px;overflow:visible;stroke-linecap:square;stroke-miterlimit:3}
	]]>
	</style>

	<defs
   id="Patterns_And_Gradients">
		<linearGradient
   id="grad0-10"
   x1="0"
   y1="0"
   x2="1"
   y2="0"
   gradientTransform="rotate(90,0.5,0.5)">
			<stop
   offset="0"
   stop-color="#a67af4"
   stop-opacity="1"
   id="stop4" />
			<stop
   offset="1"
   stop-color="#773adc"
   stop-opacity="1"
   id="stop6" />
		</linearGradient>
	<linearGradient
   inkscape:collect="always"
   xlink:href="#grad0-10"
   id="linearGradient4554"
   gradientTransform="scale(1.0032457,0.99676479)"
   x1="0"
   y1="106.83564"
   x2="15.429919"
   y2="106.83564"
   gradientUnits="userSpaceOnUse" /><linearGradient
   inkscape:collect="always"
   xlink:href="#grad0-10"
   id="linearGradient4556"
   gradientTransform="scale(1.0035691,0.99644355)"
   x1="0"
   y1="106.87007"
   x2="15.434911"
   y2="106.87007"
   gradientUnits="userSpaceOnUse" /></defs>
	<g
   id="g38"
   transform="translate(-34.000261,-34.0006)">
		<title
   id="title10">Page-1</title>
		<g
   id="group11264-1"
   transform="translate(34,-34.0157)">
			<title
   id="title12">Kubernetes Service and Ingres.11264</title>
			<g
   id="group11265-2">
				<title
   id="title14">Sheet.11265</title>
				<g
   id="shape11266-3"
   transform="translate(5.44567,-15.3433)">
					<title
   id="title16">Sheet.11266</title>
					<path
   d="m 25.37,110.29 v -6.67 h -4.73 v 6.67 a 0.944882,0.939388 0 0 1 -0.944882,0.93939 L 1.89,111.23 A 1.88976,1.87878 -180 0 0 0,113.11 v 8.66 h 4.72 v -4.79 a 0.944882,0.939388 0 0 1 0.944882,-0.93939 L 40.12,116.04 a 0.944882,0.939388 0 0 1 0.944882,0.93939 L 41.07,121.87 h 4.72 v -8.76 A 1.88976,1.87878 -180 0 0 43.9,111.23 H 26.31 a 0.944882,0.939388 0 0 1 -0.944882,-0.93939 z"
   class="st1"
   id="path18"
   inkscape:connector-curvature="0"
   style="fill:#a3a3a3;stroke:none;stroke-width:34;stroke-linecap:butt" />
				</g>
				<g
   id="shape11267-5"
   transform="translate(17.4425,-32.3337)">
					<title
   id="title21">Sheet.11267</title>
					<path
   d="M 19.69,100.35 H 1.96 A 1.95906,1.94767 -180 0 0 0,102.3 v 17.61 a 1.95906,1.94767 -180 0 0 1.94,1.96 h 17.75 a 1.95906,1.94767 -180 0 0 1.96,-1.93 v -17.65 a 1.95591,1.94453 -180 0 0 -1.95,-1.94 z m -1.7,16.6 a 1.29764,1.29009 0 0 1 -1.3,1.29 H 4.94 a 1.30079,1.29322 0 0 1 -1.3,-1.29 v -11.7 a 1.29764,1.29009 0 0 1 1.3,-1.29 h 11.77 a 1.29449,1.28696 0 0 1 1.29,1.29 z"
   class="st2"
   id="path23"
   inkscape:connector-curvature="0"
   style="fill:#773adc;stroke:none;stroke-width:34;stroke-linecap:butt" />
				</g>
				<g
   id="shape11268-7">
					<title
   id="title26">Sheet.11268</title>
					<path
   d="m 15.48,120.31 v -12.26 a 1.5748,1.56565 -180 0 0 -1.57,-1.56 H 1.57 A 1.5748,1.56565 -180 0 0 0,108.05 v 12.26 a 1.5748,1.56565 -180 0 0 1.57,1.56 h 12.34 a 1.5748,1.56565 -180 0 0 1.57,-1.56 z"
   class="st3"
   id="path28"
   inkscape:connector-curvature="0"
   style="fill:url(#linearGradient4554);stroke:none;stroke-width:34;stroke-linecap:butt" />
				</g>
				<g
   id="shape11269-11"
   transform="translate(41.2063)">
					<title
   id="title31">Sheet.11269</title>
					<path
   d="m 15.49,120.31 v -12.26 a 1.5748,1.56565 -180 0 0 -1.58,-1.56 H 1.57 A 1.5748,1.56565 -180 0 0 0,108.05 v 12.26 a 1.5748,1.56565 -180 0 0 1.57,1.56 h 12.34 a 1.5748,1.56565 -180 0 0 1.58,-1.56 z"
   class="st3"
   id="path33"
   inkscape:connector-curvature="0"
   style="fill:url(#linearGradient4556);stroke:none;stroke-width:34;stroke-linecap:butt" />
				</g>
			</g>
		</g>
	</g>
</svg>

<?xml version="1.0" encoding="UTF-8" standalone="no"?>
<!DOCTYPE svg PUBLIC "-//W3C//DTD SVG 1.1//EN" "http://www.w3.org/Graphics/SVG/1.1/DTD/svg11.dtd">
<!-- Generated by Microsoft Visio, SVG Export Kubernetes Service and Ingres.svg Page-1 -->
<svg xmlns="http://www.w3.org/2000/svg" xmlns:xlink="http://www.w3.org/1999/xlink" xmlns:ev="http://www.w3.org/2001/xml-events"
		width="1.73185in" height="1.69269in" viewBox="0 0 124.693 121.874" xml:space="preserve" color-interpolation-filters="sRGB"
		class="st4">
	<style type="text/css">
	<![CDATA[
		.st1 {fill:#a3a3a3;stroke:none;stroke-linecap:butt;stroke-width:34}
		.st2 {fill:#773adc;stroke:none;stroke-linecap:butt;stroke-width:34}
		.st3 {fill:url(#grad0-10);stroke:none;stroke-linecap:butt;stroke-width:34}
		.st4 {fill:none;fill-rule:evenodd;font-size:12px;overflow:visible;stroke-linecap:square;stroke-miterlimit:3}
	]]>
	</style>

	<defs id="Patterns_And_Gradients">
		<linearGradient id="grad0-10" x1="0" y1="0" x2="1" y2="0" gradientTransform="rotate(90 0.5 0.5)">
			<stop offset="0" stop-color="#a67af4" stop-opacity="1"/>
			<stop offset="1" stop-color="#773adc" stop-opacity="1"/>
		</linearGradient>
	</defs>
	<g>
		<title>Page-1</title>
		<g id="group11018-1" transform="translate(34,-34.0157)">
			<title>Kubernetes Service and Ingres.11018</title>
			<g id="group11019-2">
				<title>Sheet.11019</title>
				<g id="shape11020-3" transform="translate(5.44567,-15.3433)">
					<title>Sheet.11020</title>
					<path d="M25.37 110.29 L25.37 103.62 L20.64 103.62 L20.64 110.29 a0.944882 0.939388 0 0 1 -0.944882 0.939388
								 L1.89 111.23 A1.88976 1.87878 -180 0 0 0 113.11 L0 121.77 L4.72 121.77 L4.72 116.98 a0.944882 0.939388
								 0 0 1 0.944882 -0.939388 L40.12 116.04 a0.944882 0.939388 0 0 1 0.944882 0.939388 L41.07 121.87
								 L45.79 121.87 L45.79 113.11 A1.88976 1.87878 -180 0 0 43.9 111.23 L26.31 111.23 a0.944882 0.939388
								 0 0 1 -0.944882 -0.939388 L25.37 110.29 Z" class="st1"/>
				</g>
				<g id="shape11021-5" transform="translate(17.4425,-32.3337)">
					<title>Sheet.11021</title>
					<path d="M19.69 100.35 L1.96 100.35 A1.95906 1.94767 -180 0 0 -0 102.3 L0 119.91 A1.95906 1.94767 -180 0 0 1.94
								 121.87 L19.69 121.87 A1.95906 1.94767 -180 0 0 21.65 119.94 L21.65 102.29 A1.95591 1.94453 -180
								 0 0 19.7 100.35 L19.69 100.35 ZM17.99 116.95 A1.29764 1.29009 0 0 1 16.69 118.24 L4.94 118.24 A1.30079
								 1.29322 0 0 1 3.64 116.95 L3.64 105.25 A1.29764 1.29009 0 0 1 4.94 103.96 L16.71 103.96 A1.29449
								 1.28696 0 0 1 18 105.25 L17.99 116.95 Z" class="st2"/>
				</g>
				<g id="shape11022-7">
					<title>Sheet.11022</title>
					<path d="M15.48 120.31 L15.48 108.05 A1.5748 1.56565 -180 0 0 13.91 106.49 L1.57 106.49 A1.5748 1.56565 -180
								 0 0 -0 108.05 L0 120.31 A1.5748 1.56565 -180 0 0 1.57 121.87 L13.91 121.87 A1.5748 1.56565 -180
								 0 0 15.48 120.31 Z" class="st3"/>
				</g>
				<g id="shape11023-11" transform="translate(41.2063,0)">
					<title>Sheet.11023</title>
					<path d="M15.49 120.31 L15.49 108.05 A1.5748 1.56565 -180 0 0 13.91 106.49 L1.57 106.49 A1.5748 1.56565 -180
								 0 0 -0 108.05 L0 120.31 A1.5748 1.56565 -180 0 0 1.57 121.87 L13.91 121.87 A1.5748 1.56565 -180
								 0 0 15.49 120.31 Z" class="st3"/>
				</g>
			</g>
		</g>
	</g>
</svg>
